src/icons/dex.svg

<svg viewBox="0 0 64 64" xmlns="http://www.w3.org/2000/svg" aria-hidden="true"><path d="M5 51.0815V37.2697L17.1023 30.3511L29.2216 37.2612V51.073L17.1108 57.9916L5 51.0815ZM7.76988 49.4972L17.1108 54.8399L26.4517 49.4972V38.8455L17.1108 33.5112L7.77841 38.8455V49.4972H7.76988Z"></path><path d="M31.983 33.6489L19.8722 26.7304V12.9185L31.983 6L44.0938 12.9101V26.7304L31.983 33.6489ZM22.6421 25.1545L31.983 30.4888L41.3239 25.1545V14.4944L31.983 9.16854L22.6421 14.5028V25.1545Z"></path><path d="M46.8892 57.9663L34.787 51.0477V37.2359L46.8892 30.3174L59 37.2106V51.0309L46.8892 57.9663ZM37.5568 49.4719L46.8892 54.8061L56.2301 49.4634V38.8033L46.8892 33.4859L37.5568 38.8202V49.4719Z"></path><path d="M47.9716 44.7528H16.037L31.9233 19.7837L47.9716 44.7528ZM20.2813 42.4354H43.7102L31.9319 24.1235L20.2813 42.4354Z"></path><path d="M5 51.0815V37.2697L17.1023 30.3511L29.2216 37.2612V51.073L17.1108 57.9916L5 51.0815ZM7.76988 49.4972L17.1108 54.8399L26.4517 49.4972V38.8455L17.1108 33.5112L7.77841 38.8455V49.4972H7.76988Z" stroke-width="0.6"></path><path d="M31.983 33.6489L19.8722 26.7304V12.9185L31.983 6L44.0938 12.9101V26.7304L31.983 33.6489ZM22.6421 25.1545L31.983 30.4888L41.3239 25.1545V14.4944L31.983 9.16854L22.6421 14.5028V25.1545Z" stroke-width="0.6"></path><path d="M46.8892 57.9663L34.787 51.0477V37.2359L46.8892 30.3174L59 37.2106V51.0309L46.8892 57.9663ZM37.5568 49.4719L46.8892 54.8061L56.2301 49.4634V38.8033L46.8892 33.4859L37.5568 38.8202V49.4719Z" stroke-width="0.6"></path><path d="M47.9716 44.7528H16.037L31.9233 19.7837L47.9716 44.7528ZM20.2813 42.4354H43.7102L31.9319 24.1235L20.2813 42.4354Z" stroke-width="0.6"></path><path d="M31.9325 24.0593C30.2876 24.0593 28.7961 23.0818 28.1654 21.5734C27.5348 20.0649 27.8842 18.329 29.0433 17.1829C30.2109 16.0284 31.9666 15.6829 33.4836 16.3065C35.0092 16.9301 35.9978 18.3964 35.9978 20.0312C35.9978 21.1015 35.5717 22.1211 34.8046 22.8795C34.0376 23.638 33.0063 24.0593 31.924 24.0593"></path><path d="M46.9097 48.3684C45.2563 48.3768 43.7648 47.4077 43.1256 45.8993C42.4864 44.3993 42.8273 42.6549 43.9864 41.5004C45.1455 40.3459 46.9012 39.992 48.4268 40.6156C49.9523 41.2392 50.9495 42.7054 50.9495 44.3403C50.9495 46.5566 49.1427 48.3515 46.9012 48.3684H46.9097Z"></path><path d="M17.0773 48.3684C15.4325 48.3684 13.941 47.3908 13.3103 45.8824C12.6796 44.374 13.0291 42.6464 14.1881 41.4919C15.3558 40.3375 17.1029 39.9919 18.6285 40.6155C20.154 41.2391 21.1427 42.7054 21.1427 44.3403C21.1427 45.4105 20.7165 46.4302 19.9495 47.1886C19.1825 47.947 18.1512 48.3684 17.0688 48.3684H17.0773Z"></path></svg>

<svg xmlns="http://www.w3.org/2000/svg" aria-hidden="true" viewBox="0 0 64 64"><path d="M5 51.082V37.27l12.102-6.919 12.12 6.91v13.812L17.11 57.992zm2.77-1.585 9.34 5.343 9.342-5.343V38.846L17.11 33.51l-9.333 5.334v10.652zm24.213-15.848-12.11-6.919V12.92L31.982 6l12.11 6.91v13.82zm-9.34-8.495 9.34 5.335 9.34-5.335v-10.66l-9.34-5.325-9.34 5.334zM46.89 57.966l-12.103-6.918V37.236l12.102-6.919L59 37.211v13.82zm-9.333-8.494 9.332 5.334 9.341-5.343v-10.66l-9.34-5.317-9.333 5.334z"/><path d="M47.972 44.753H16.037l15.886-24.97zm-27.69-2.318H43.71L31.932 24.123z"/><path d="M5 51.082V37.27l12.102-6.919 12.12 6.91v13.812L17.11 57.992zm2.77-1.585 9.34 5.343 9.342-5.343V38.846L17.11 33.51l-9.333 5.334v10.652zm24.213-15.848-12.11-6.919V12.92L31.982 6l12.11 6.91v13.82zm-9.34-8.495 9.34 5.335 9.34-5.335v-10.66l-9.34-5.325-9.34 5.334zM46.89 57.966l-12.103-6.918V37.236l12.102-6.919L59 37.211v13.82zm-9.333-8.494 9.332 5.334 9.341-5.343v-10.66l-9.34-5.317-9.333 5.334z"/><path d="M47.972 44.753H16.037l15.886-24.97zm-27.69-2.318H43.71L31.932 24.123z"/><path d="M31.933 24.06a4.08 4.08 0 0 1-3.768-2.487 4 4 0 0 1 .878-4.39 4.11 4.11 0 0 1 4.44-.876 4.02 4.02 0 0 1 2.515 3.724c0 1.07-.426 2.09-1.193 2.849a4.1 4.1 0 0 1-2.881 1.18M46.91 48.368a4.07 4.07 0 0 1-3.784-2.469 4 4 0 0 1 .86-4.399 4.1 4.1 0 0 1 4.44-.884 4.03 4.03 0 0 1 2.523 3.724c0 2.217-1.806 4.011-4.048 4.028zm-29.833 0a4.08 4.08 0 0 1-3.767-2.486 4.005 4.005 0 0 1 .878-4.39 4.1 4.1 0 0 1 4.44-.876 4.02 4.02 0 0 1 2.515 3.724c0 1.07-.427 2.09-1.194 2.849a4.1 4.1 0 0 1-2.88 1.18z"/></svg>
